src/images/NavBar/leftArrow.svg

<svg width="30" height="40" viewBox="0 0 30 40" fill="none" xmlns="http://www.w3.org/2000/svg">
<g clip-path="url(#clip0_39917_12)">
<path fill-rule="evenodd" clip-rule="evenodd" d="M0.900323 21.3799L25.4816 39.4399C25.6772 39.6117 25.9525 39.7537 26.2809 39.8523C26.6093 39.9508 26.9798 40.0026 27.3566 40.0026C27.7334 40.0026 28.1039 39.9508 28.4323 39.8523C28.7607 39.7537 29.036 39.6117 29.2316 39.4399C29.7372 39.0302 30.0067 38.5505 30.0067 38.0599C30.0067 37.5694 29.7372 37.0897 29.2316 36.6799L6.52532 19.9999L29.2316 3.31994C29.7372 2.91022 30.0067 2.43046 30.0067 1.93994C30.0067 1.44943 29.7372 0.969667 29.2316 0.559943C29.036 0.388173 28.7607 0.246172 28.4323 0.147627C28.1039 0.0490818 27.7334 -0.00268555 27.3566 -0.00268555C26.9798 -0.00268555 26.6093 0.0490818 26.2809 0.147627C25.9525 0.246172 25.6772 0.388173 25.4816 0.559943L0.900323 18.6199C0.316262 19.0125 -0.00161743 19.4988 -0.00161743 19.9999C-0.00161743 20.501 0.316262 20.9874 0.900323 21.3799V21.3799Z" fill="white"/>
</g>
<defs>
<clipPath id="clip0_39917_12">
<rect width="30" height="40" fill="white"/>
</clipPath>
</defs>
</svg>

<svg width="30" height="40" fill="none" xmlns="http://www.w3.org/2000/svg"><g clip-path="url(#a)"><path fill-rule="evenodd" clip-rule="evenodd" d="m.9 21.38 24.582 18.06c.195.172.47.314.799.412.328.099.699.15 1.076.15a3.79 3.79 0 0 0 1.075-.15c.329-.098.604-.24.8-.412.505-.41.775-.89.775-1.38 0-.49-.27-.97-.775-1.38L6.525 20 29.232 3.32c.505-.41.775-.89.775-1.38 0-.49-.27-.97-.775-1.38-.196-.172-.471-.314-.8-.412a3.788 3.788 0 0 0-1.075-.15c-.377 0-.748.051-1.076.15-.328.098-.604.24-.8.412L.902 18.62c-.585.392-.903.879-.903 1.38 0 .501.318.987.902 1.38Z" fill="#fff"/></g><defs><clipPath id="a"><path fill="#fff" d="M0 0h30v40H0z"/></clipPath></defs></svg>
